X: 24662
T: Machrie, The
R: jig
M: 6/8
K: Dmajor
|:FAA EAA|F2A Bdd|FAA E2A|BAF AFE|
FAA EAA|F2A BAF|AB/c/d add|fAe dBG:|
|:ABd fed|fAe dBA|F2A E2A|BAF AFE|
[1 AB/c/d f2a|dee dBA|AB/c/d add|fAe dBA:|
[2 FAA EAA|FAA Bdd-|d3-d2A|BAF AFE||

